X:86
T: IST NICHT LANG DASS ES GEREGNET HAT
N: F0192
O: Europa, Mitteleuropa, Deutschland
R: Abschieds - Lied
M: 2/4
L: 1/16
K: F
C2 | F2G2A2B2 | c2c=Bc2
f2 | c2A2B2G2 | A4z2
C2 | F2G2A2B2 | c2c=Bc2
f2 | c2A2B2G2 | F4z2

